src/images/ico/match-radio.svg

<svg width="25" height="25" viewBox="0 0 25 25" fill="none" xmlns="http://www.w3.org/2000/svg">
<path fill-rule="evenodd" clip-rule="evenodd" d="M17.5742 10.096C17.1853 8.46759 15.6638 7.36853 13.9957 7.51096C12.3276 7.65339 11.0144 8.99446 10.9072 10.6652C10.9009 10.8094 10.9563 10.9495 11.0594 11.0503L14.1223 14.1142C14.2233 14.2177 14.3639 14.2728 14.5084 14.2654C15.5041 14.1996 16.4199 13.6977 17.011 12.8938C17.6022 12.0899 17.8083 11.066 17.5742 10.096V10.096Z" stroke="#222D78" stroke-width="1.5" stroke-linecap="round" stroke-linejoin="round"/>
<path d="M11.0939 11.0851L7.86583 15.3556C7.56636 15.7518 7.60485 16.3081 7.95602 16.6593L8.50734 17.2106C8.85859 17.5619 9.41509 17.6003 9.81128 17.3006L14.0807 14.0712" stroke="#222D78" stroke-width="1.5" stroke-linecap="round" stroke-linejoin="round"/>
<circle cx="12.6667" cy="12.5" r="9.00375" stroke="#222D78" stroke-width="1.5" stroke-linecap="round" stroke-linejoin="round"/>
</svg>

<svg width="25" height="25" viewBox="0 0 25 25" fill="none" xmlns="http://www.w3.org/2000/svg"><path clip-rule="evenodd" d="M17.574 10.096a3.383 3.383 0 00-6.667.57.508.508 0 00.152.384l3.063 3.064a.503.503 0 00.386.151 3.383 3.383 0 003.066-4.169v0z" stroke="#222D78" stroke-width="1.5" stroke-linecap="round" stroke-linejoin="round"/><path d="M11.094 11.085l-3.228 4.27a.995.995 0 00.09 1.304l.551.552a.995.995 0 001.304.09l4.27-3.23" stroke="#222D78" stroke-width="1.5" stroke-linecap="round" stroke-linejoin="round"/><circle cx="12.67" cy="12.5" r="9" stroke="#222D78" stroke-width="1.5" stroke-linecap="round" stroke-linejoin="round"/></svg>
